X: 35
T:Gan Ainm
R:Fling
M:4/4
S:Sharon Shannon, Clare (accordian)
D:Session tape, Doolin 1987
Z:Bernie Stocks
H:A Shetland tune
K:G
BGAG EGDG | BGAG BGAG | BGAG EGDE |1 GABA G3A :|2 GABA G3g ||
egdB AGEg | egdg egdg | egdB AGE2 | eg(3.g.g.g abgd |
egdg edgd | egdB AGED | (3.G.G.GBG EGDE | GABA G4 ||
